X:1
T:The Old Oaken Bucket
T:The Old Oaken Bucket
T:Winslow Lewis Hayden
T:How soon from the green mossy rim to receive it, As poised on the curb it reclined to my lips, Not a full flowing goblet could tempt me to leave it, Tho' filled with the nectar that Jupiter sips. And now far removed from the loved situation, The tear of regret will intrusively swell. As fancy reverts to my father's plantation, And sighs for the bucket that hung in the well. The old oaken bucket, the ironbound bucket, The moss-covered bucket that hung in the well . 
T:The moss-covered bucket I hail as a treasure, For often at noon when returned from the field, I found it the source of an exquisite pleasure, The purest and sweetest that nature can yield. How ardent I seized it with hands that were glowing, And quick to the white pebbled bottom it fell. Then soon with the emblem of truth overflowing, And dripping with coolness it rose from the well. The old oaken bucket, the ironbound bucket, The moss-covered bucket that hung in the well.
T:How dear to this heart are the scenes of my childhood, When fond recollection presents them to view, The orchard, the meadow, the deep tangled wildwood, And ev'ry lov'd spot which my infancy knew. The wide spreading stream, the mill that stood near it, The bridge and the rock where the cataract fell. The cot of my father, the dairy house by it, And e'en the rude bucket that hung in the well. The old oaken bucket, the ironbound bucket, The moss-covered bucket that hung in the well.
T:by IMSLP - Public Domain
T:by IMSLP - Public Domain
T:by IMSLP - Public Domain
C:Winslow Lewis Hayden
Z:Samuel Woodworth George Kialmark
Z:by IMSLP - Public Domain
%%score ( 1 2 )
L:1/8
Q:1/4=100
M:6/8
K:A
V:1 treble-8 nm="Classical Guitar" snm="Guit."
V:2 treble-8 
V:1
"^INTRODUCTION." e | A,/A/c/e/a/c'/ e'>[fd'][ec'] | [ec'][db][ca] [fa]3/2{ba}[ea]/[df] | %3
w: |||
w: |||
 [Adf]!fermata![Ace][Ace] [Adf]>(ga) | ([Ace]{c}a)[ec'] [db]>[ca][db] | [ec']3!f! [ege']2 E | %6
w: |||
w: |||
 A,/A/c/e/a/c'/ e'>[fd'][ec'] | [ec'][db][ca] [fa]3/2{ba}[ea]/[df] | %8
w: ||
w: ||
 [Adf]!fermata![Ace][Ace] [Adf]>(ga) | ([Ace]{c}a)[ec'] [db]>[ca][db] | [ca]3- [ca]2 |] %11
w: |||
w: |||
[Q:1/4=90]"^Moderato"!mf! e | [ec']>[db][ca] [ec']>[db][ca] | [db]>[ca][db] [ec'][ca]>[ca] | %14
w: |||
w: |||
 [fa]>[eg][df] [ce][ca][ec'] | [db]>[ca][db] [ca]2 e | [ec']>[db][ca] [ec']>[db][ca] | %17
w: |||
w: |||
 [db]>[ca][db] [ec'][ca]>[ca] | [fa]>[eg][df] [ce][ca][ec'] | [db]>[ca][db] [ca]2 e | [GBe]ee fee | %21
w: ||||
w: ||||
 [Ace]ee aee | [GBe]ee [ec']>[db][ca] | [Bg]b^d [Ace]2 e | [GBe]ee fee | [Ace]ee aee | %26
w: |||||
w: |||||
 [GBe]ee [ec']>[db][ca] | [Bg]b^d [GBe]2 [G=de] | [ec']>[db][ca] [ec']>[db][ca] | %29
w: |||
w: |||
 [db]>[ca][db] [ec'][ca]>[ca] | [fa]>[eg][df] [ce][ca][ec'] | [db]>[ca][db] [ca]2 |] %32
w: |||
w: |||
[K:D][M:4/4][Q:1/4=95]"^Brillante." A2 | !>![Adf]/f/f/f/ e/e/d/d/ !>![Adf]/f/f/f/ e/e/d/d/ | %34
w: ||
w: ||
 !>![Gce]/e/e/e/ d/d/e/e/ !>![Adf]/f/d/d/ d/d/d/d/ | !>![Gd]/d/d/d/ c/c/B/B/ !>!A/A/A/A/ d/d/e/e/ | %36
w: ||
w: ||
 !>![Ace]/e/e/e/ d/d/e/e/ [Ad]2 A2 | !>![Adf]/f/f/f/ e/e/d/d/ !>![Adf]/f/f/f/ e/e/d/d/ | %38
w: ||
w: ||
 !>![Gce]/e/e/e/ d/d/e/e/ !>![Adf]/f/d/d/ d/d/d/d/ | !>![Gd]/d/d/d/ c/c/B/B/ !>!A/A/A/A/ d/d/e/e/ | %40
w: ||
w: ||
 !>![Ace]/e/e/e/ d/d/e/e/ [Ad]2 A2 |] AA/A/ AA BA/A/ AA | AA/A/ AA dA/A/ AA | %43
w: |||
w: |||
 AA/A/ AA [Adf]f/f/ ed | [Ac]e/e/ e^G A2 A2 | AA/A/ A/A/A/A/ BA/A/ A/A/A/A/ | %46
w: |||
w: |||
 AA/A/ A/A/A/A/ dA/A/ A/A/A/A/ | AA/A/ A/A/A/A/ [Adf]f/f/ e/e/d/d/ | [Ac]e/e/ e^G/G/ A2 A2 |] %49
w: |||
w: |||
 (6:4:6[Adf]/f/f/f/f/f/ (6:4:6e/e/e/e/e/e/ (6:4:6[Adf]/f/f/f/f/f/ (6:4:6e/e/e/d/d/d/ | %50
w: |
w: |
 (6:4:6[Ace]/e/e/e/e/e/ (6:4:6d/d/d/e/e/e/ (6:4:6[Adf]/f/f/d/d/d/ (6:4:6d/d/d/d/d/d/ | %51
w: |
w: |
 (6:4:6[Gd]/d/d/d/d/d/ (6:4:6c/c/c/B/B/B/ (6:4:6A/A/A/A/A/A/ (6:4:6d/d/d/f/f/f/ | %52
w: |
w: |
 (6:4:6[Ace]/e/e/e/e/e/ (6:4:6d/d/d/e/e/e/ |] %53
w: |
w: |
[M:3/4]"^Harmonies.\nFrets.\n\n\n\nString."[Q:1/4=120] A2 | f3 e d2 | f3 e d2 | e3 d e2 | f2 d3 d | %58
w: 4|2 1 3|2 1 3|1 3 1|2 3 3|
w: 7|7 12 7|7 12 7|12 7 12|7 7 7|
 d3 c B2 | A2 d3 f | e3 d e2 | d4 A2 | f3 e d2 | f3 e d2 | e3 d e2 | f2 d3 d | d3 c B2 | A2 d3 f | %68
w: 3 5 2|4 3 2|1 3 1|3 4|2 1 3|2 1 3|1 3 1|2 3 3|3 5 2|4 3 2|
w: 7 9 12|7 \- \-|12 7 12|7 \-|\- 12 7|\- 12 7|12 7 12|7 \- \-|\- 9 12|7 \- \-|
 e3 d e2 | d4 A2 | A2 A2 A2 | B2 A2 A2 | A2 A2 A2 | d2 A2 A2 | A2 A2 A2 | f3 e d2 | c2 e2 ^G2 | %77
w: 1 3 1|3 4|\- \- \-|2 4 \-|\- \- \-|3 4 \-|\- \- \-|2 1 3|5 1 6|
w: 12 7 12|7. \-|\- \- \-|12 7 \-|\- \- \-|\- \- \-|\- \- \-|\- 12 7|9 12 9|
 A4 A2 | A2 A2 A2 | B2 A2 A2 | A2 A2 A2 | d2 A2 A2 | A2 A2 A2 | f3 e d2 | c2 e2 ^G2 | A4 A2 | %86
w: 4 \-|\- \- \-|2 4 \-|\- \- \-|3 4 \-|\- \- \-|2 1 3|5 1 6|4 \-|
w: 7 \-|\- \- \-|12 \- \-|\- \- \-|7 \- \-|\- \- \-|\- 12 7|9 12 9|7 \-|
 f3 e d2 | f3 e d2 | e3 d e2 | f2 d3 d | d3 c B2 | A2 d3 f | e3 d e2 | d4 |] %94
w: 2 1 3|2 1 3|1 3 1|2 3 \-|\- 5 2|4 3 2|1 3 1|3|
w: \- 12 7|\- 12 7|12 7 12|7 \- \-|\- 9 12|7 \- \-|12 7 12|7|
[K:A][M:6/8][Q:1/4=90]"^Moderato" E | !arpeggio![EAc]>[DB][CA] !arpeggio![EAc]>[DB][CA] | %96
w: ||
w: ||
 !arpeggio![EGB]>[CA][DB] !arpeggio![EAc][EA]>A | A3/2{BA}G/F E[EA]>[EAc] | %98
w: ||
w: ||
 !arpeggio![EGB]>[CA][DB] [EA]2 E | !arpeggio![EAc]>[DB][CA] !arpeggio![EAc]>[DB][CA] | %100
w: ||
w: ||
 !arpeggio![EGB]>[CA][DB] !arpeggio![EAc][EA]>A | A3/2{BA}G/F E[EA]>[EAc] | %102
w: ||
w: ||
 !arpeggio![EGB]>[CA][DB] [EA]2 e |!mf! !>![GBe][GBe][GBe] !>![GBf][GBe][GBe] | %104
w: ||
w: ||
 !>![Ace][Ace][Ace] !>![ca][Ace][Ace] | !>![GBe][GBe][GBe] [ec']>[db][ca] | [Bg]b^d [GBe]2 E | %107
w: |||
w: |||
!p! EEE FEE | EEE AEE | EEE !arpeggio![EAc]>[DB][CA] | GB^D E2 E | %111
w: ||||
w: ||||
 !arpeggio![EAc]>[DB][CA] !arpeggio![EAc]>[DB][CA] | %112
w: |
w: |
 !arpeggio![EGB]>[CA][DB] !arpeggio![EAc][EA]>A | A3/2{BA}G/F E[EA]>[EAc] | %114
w: ||
w: ||
 !arpeggio![EGB]>[CA][DB] [EA]2 |] %115
w: |
w: |
V:2
 z | A,3 A,3 | A,3 D3 | DEA, D3 | A,3 E,3 | A,3 E,2 x | A,3 A,3 | A,3 D3 | DEA, D3 | A,3 E,3 | %10
 A,3- A,2 |] z | A,3 A,3 | E,3 A,3 | D3 A,3 | E,3 A,3 | A,3 A,3 | E,3 A,3 | D3 A,3 | E,3 A,3 | %20
 E,3 E,3 | A,3 A,3 | E,3 A,3 | E,2 B, E,3 | E,3 E,3 | A,3 A,3 | E,3 A,3 | E,2 B, E,2 E, | A,3 A,3 | %29
 E,3 A,3 | D3 A,3 | E,3 A,2 |][K:D][M:4/4] z2 | D4 D4 | A,4 D4 | G,4 D4 | G,4 D2 z2 | D4 D4 | %38
 A,4 D4 | G,4 D4 | G,4 D2 z2 |] A,4 A,4 | D4 D4 | A,4 D4 | E,4 A,2 z2 | A,4 A,4 | D4 D4 | A,4 D4 | %48
 E,4 A,4 |] D4 D4 | A,4 D4 | G,4 =C4 | A,4 |][M:3/4] x2 | x6 | x6 | x6 | x6 | x6 | x6 | x6 | x6 | %62
 x6 | x6 | x6 | x6 | x6 | x6 | x6 | x6 | x6 | x6 | x6 | x6 | x6 | x6 | x6 | x6 | x6 | x6 | x6 | %81
 x6 | x6 | x6 | x6 | x6 | x6 | x6 | x6 | x6 | x6 | x6 | x6 | x4 |][K:A][M:6/8] z | %95
 !arpeggio!A,3 !arpeggio!A,3 | !arpeggio!E,3 !arpeggio!A,3 | D3 A,3 | !arpeggio!E,3 A,2 z | %99
 !arpeggio!A,3 !arpeggio!A,3 | !arpeggio!E,3 !arpeggio!A,3 | D3 A,3 | !arpeggio!E,3 A,2 z | %103
 E,3 E,3 | A,3 A,3 | E,3 A,3 | E,2 B, E,2 z | E,3 E,3 | A,3 A,3 | E,3 !arpeggio!A,3 | %110
 B,2 B, E,2 z | !arpeggio!A,3 !arpeggio!A,3 | !arpeggio!E,3 !arpeggio!A,3 | D3 A,3 | %114
 !arpeggio!E,3 A,2 |] %115

